svgs/themed_icon_calendar_9.svg

<svg height="192" width="192" xmlns="http://www.w3.org/2000/svg"><path d="M146 30H46c-8.837 0-16 7.163-16 16v100c0 8.837 7.163 16 16 16h75.373a16 16 0 0 0 11.313-4.686l24.628-24.628A16 16 0 0 0 162 121.373V46c0-8.837-7.163-16-16-16Z" stroke="#000" stroke-width="12" fill="none"/><path d="M91.838 120.792c-2.064 0-4.152-.288-6.264-.864a21.667 21.667 0 0 1-5.904-2.592c-1.2-.672-1.944-1.584-2.232-2.736-.24-1.152-.144-2.256.288-3.312.48-1.056 1.224-1.824 2.232-2.304 1.056-.48 2.304-.384 3.744.288 1.488.816 2.904 1.392 4.248 1.728 1.392.336 2.736.504 4.032.504 7.872 0 11.808-5.16 11.808-15.48v-1.368c-1.008 2.4-2.568 4.272-4.68 5.616-2.112 1.296-4.536 1.944-7.272 1.944-2.88 0-5.448-.696-7.704-2.088-2.208-1.44-3.96-3.384-5.256-5.832-1.296-2.496-1.944-5.328-1.944-8.496 0-3.36.72-6.336 2.16-8.928 1.488-2.64 3.504-4.704 6.048-6.192 2.592-1.488 5.568-2.232 8.928-2.232 6.48 0 11.472 2.232 14.976 6.696 3.552 4.416 5.328 10.68 5.328 18.792 0 8.496-1.992 15.096-5.976 19.8-3.984 4.704-9.504 7.056-16.56 7.056Zm2.88-27.288c2.208 0 4.008-.744 5.4-2.232 1.392-1.536 2.088-3.528 2.088-5.976s-.696-4.416-2.088-5.904c-1.392-1.536-3.192-2.304-5.4-2.304s-4.008.768-5.4 2.304c-1.392 1.488-2.088 3.456-2.088 5.904s.696 4.44 2.088 5.976c1.392 1.488 3.192 2.232 5.4 2.232Z"/></svg>

<?xml version="1.0" encoding="UTF-8" standalone="no"?><svg xmlns:android="http://schemas.android.com/apk/res/android" height="192" width="192" xmlns="http://www.w3.org/2000/svg">
  <path d="M146,30H46C37.163,30 30,37.163 30,46V146C30,154.837 37.163,162 46,162H121.373C125.616,162 129.686,160.314 132.686,157.314L157.314,132.686C160.314,129.686 162,125.616 162,121.373V46C162,37.163 154.837,30 146,30Z" fill="#000000" fill-opacity="0.0" stroke="#000000" stroke-width="12"/>
  <path d="M91.838,120.792C89.774,120.792 87.686,120.504 85.574,119.928C83.462,119.352 81.494,118.488 79.67,117.336C78.47,116.664 77.726,115.752 77.438,114.6C77.198,113.448 77.294,112.344 77.726,111.288C78.206,110.232 78.95,109.464 79.958,108.984C81.014,108.504 82.262,108.6 83.702,109.272C85.19,110.088 86.606,110.664 87.95,111C89.342,111.336 90.686,111.504 91.982,111.504C99.854,111.504 103.79,106.344 103.79,96.024V94.656C102.782,97.056 101.222,98.928 99.11,100.272C96.998,101.568 94.574,102.216 91.838,102.216C88.958,102.216 86.39,101.52 84.134,100.128C81.926,98.688 80.174,96.744 78.878,94.296C77.582,91.8 76.934,88.968 76.934,85.8C76.934,82.44 77.654,79.464 79.094,76.872C80.582,74.232 82.598,72.168 85.142,70.68C87.734,69.192 90.71,68.448 94.07,68.448C100.55,68.448 105.542,70.68 109.046,75.144C112.598,79.56 114.374,85.824 114.374,93.936C114.374,102.432 112.382,109.032 108.398,113.736C104.414,118.44 98.894,120.792 91.838,120.792ZM94.718,93.504C96.926,93.504 98.726,92.76 100.118,91.272C101.51,89.736 102.206,87.744 102.206,85.296C102.206,82.848 101.51,80.88 100.118,79.392C98.726,77.856 96.926,77.088 94.718,77.088C92.51,77.088 90.71,77.856 89.318,79.392C87.926,80.88 87.23,82.848 87.23,85.296C87.23,87.744 87.926,89.736 89.318,91.272C90.71,92.76 92.51,93.504 94.718,93.504Z" fill="#000000"/>
</svg>
